public/iconset/Lock.svg

<?xml version="1.0" encoding="UTF-8"?>
<svg width="24px" height="24px" viewBox="0 0 24 24" version="1.1" xmlns="http://www.w3.org/2000/svg" xmlns:xlink="http://www.w3.org/1999/xlink">
    <!-- Generator: Sketch 48.1 (47250) - http://www.bohemiancoding.com/sketch -->
    <title>24x24</title>
    <desc>Created with Sketch.</desc>
    <defs></defs>
    <g id="Page-1" stroke="none" stroke-width="1" fill="none" fill-rule="evenodd">
        <g id="Lock">
            <rect id="24x24" x="0" y="0" width="24" height="24"></rect>
            <path d="M16.5,9 L16,9 C16,6.790861 14.209139,5 12,5 C9.790861,5 8,6.790861 8,9 L7.5,9 C6.67157288,9 6,9.67157288 6,10.5 L6,17.5 C6,18.3284271 6.67157288,19 7.5,19 L16.5,19 C17.3284271,19 18,18.3284271 18,17.5 L18,10.5 C18,9.67157288 17.3284271,9 16.5,9 Z M12,6 C13.6568542,6 15,7.34314575 15,9 L9,9 C9,7.34314575 10.3431458,6 12,6 Z M17,17.5 C17,17.7761424 16.7761424,18 16.5,18 L7.5,18 C7.22385763,18 7,17.7761424 7,17.5 L7,10.5 C7,10.2238576 7.22385763,10 7.5,10 L16.5,10 C16.7761424,10 17,10.2238576 17,10.5 L17,17.5 Z M12.5,13.15 L12.5,11.5 L11.5,11.5 L11.5,13.15 C11.2057831,13.3323393 11.0267827,13.6538624 11.0267827,14 C11.0267827,14.3461376 11.2057831,14.6676607 11.5,14.85 L11.5,16.5 L12.5,16.5 L12.5,14.85 C12.7942169,14.6676607 12.9732173,14.3461376 12.9732173,14 C12.9732173,13.6538624 12.7942169,13.3323393 12.5,13.15 Z" id="Shape" fill="#000000" fill-rule="nonzero"></path>
        </g>
    </g>
</svg>

<svg id="target" xmlns="http://www.w3.org/2000/svg" viewBox="0 0 24 24"><title>Lock</title><path d="M16.5,9H16A4,4,0,0,0,8,9H7.5A1.5,1.5,0,0,0,6,10.5v7A1.5,1.5,0,0,0,7.5,19h9A1.5,1.5,0,0,0,18,17.5v-7A1.5,1.5,0,0,0,16.5,9ZM12,6a3,3,0,0,1,3,3H9A3,3,0,0,1,12,6Zm5,11.5a.5.5,0,0,1-.5.5h-9a.5.5,0,0,1-.5-.5v-7a.5.5,0,0,1,.5-.5h9a.5.5,0,0,1,.5.5Z"/><path d="M12.5,13.15V11.5h-1v1.65a1,1,0,0,0,0,1.7V16.5h1V14.85a1,1,0,0,0,0-1.7Z"/></svg>
